actions/22x22-dark/format-font-size-more.svg

<svg xmlns="http://www.w3.org/2000/svg" viewBox="0 0 22 22">
 <defs id="defs3051">
   <style type="text/css" id="current-color-scheme">
     .ColorScheme-Text {
       color:#f2f2f2;
     }
     </style>
 </defs>
   <path
      style="fill:currentColor;fill-opacity:1;stroke:none"
      d="m8.7363281 3-5.6425781 14.966797h2.1308594l1.4628906-4.056641h6.292969 1.990234l-4.060547-10.910156zm1.0449219 2.3613281h.0839844l2.4453126 6.7519529h-4.9746095zm5.511719 9.4902339c-.130066-.00047-.261771.049614-.361328.148438l-3.13086 3.109375c-.199292.19776-.19981.51965-.001953.71875.197681.199115.519651.199634.71875.001953l2.769531-2.75 2.751953 2.769531c.197762.199116.519635.199634.71875.001953.199196-.19768.199714-.5176.001954-.716796l-3.109375-3.132813c-.098889-.099558-.227421-.14992-.357422-.150391z"
      class="ColorScheme-Text" />
</svg>

<svg xmlns="http://www.w3.org/2000/svg" viewBox="0 0 22 22">
  <defs id="defs3051">
    <style type="text/css" id="current-color-scheme">
      .ColorScheme-Text {
        color:#f2f2f2
      }
      </style>
  </defs>
 <path 
     style="fill:currentColor;fill-opacity:1;stroke:none"      
	 class="ColorScheme-Text"
        d="M 8.7363281 3 L 3.09375 17.966797 L 5.2246094 17.966797 L 6.6875 13.910156 L 12.980469 13.910156 L 14.970703 13.910156 L 10.910156 3 L 8.7363281 3 z M 9.78125 5.3613281 L 9.8652344 5.3613281 L 12.310547 12.113281 L 7.3359375 12.113281 L 9.78125 5.3613281 z M 15.292969 14.851562 C 15.162903 14.851092 15.031198 14.901176 14.931641 15 L 11.800781 18.109375 C 11.601489 18.307135 11.600971 18.629025 11.798828 18.828125 C 11.996509 19.02724 12.318479 19.027759 12.517578 18.830078 L 15.287109 16.080078 L 18.039062 18.849609 C 18.236824 19.048725 18.558697 19.049243 18.757812 18.851562 C 18.957008 18.653882 18.957526 18.333962 18.759766 18.134766 L 15.650391 15.001953 C 15.551502 14.902395 15.42297 14.852033 15.292969 14.851562 z "
     />
</svg>
